; generated by PrusaSlicer 2.1.0+win64 on 2019-11-25 at 21:12:52 UTC

; 

; external perimeters extrusion width = 0.45mm
; perimeters extrusion width = 0.45mm
; infill extrusion width = 0.45mm
; solid infill extrusion width = 0.45mm
; top infill extrusion width = 0.40mm
; first layer extrusion width = 0.40mm

M107
M190 S103 ; set bed temperature and wait for it to be reached
M104 S240 ; set temperature
G28 ; home all axes
G1 Z5 F5000 ; lift nozzle
M109 S240 ; set temperature and wait for it to be reached
G21 ; set units to millimeters
G90 ; use absolute coordinates
M82 ; use absolute distances for extrusion
G92 E0
; Filament gcode
G1 E-2.00000 F2400.00000
G92 E0
G1 Z0.200 F6000.000
G1 X78.102 Y65.345
G1 E2.00000 F2400.00000
G1 F1800
G1 X79.430 Y64.435 E2.04781
G1 X80.925 Y63.833 E2.09564
G1 X82.484 Y63.572 E2.14257
G1 X127.745 Y63.559 E3.48643
G1 X129.098 Y63.689 E3.52679
G1 X130.397 Y64.061 E3.56693
G1 X131.634 Y64.680 E3.60799
G1 X132.716 Y65.503 E3.64833
G1 X133.625 Y66.504 E3.68849
G1 X134.347 Y67.677 E3.72940
G1 X134.835 Y68.946 E3.76976
G1 X135.081 Y70.284 E3.81014
G1 X135.112 Y90.469 E4.40946
G1 X134.921 Y123.761 E5.39796
G1 X134.795 Y124.898 E5.43194
G1 X134.509 Y125.961 E5.46463
G1 X134.040 Y127.027 E5.49919
G1 X133.435 Y127.969 E5.53245
G1 X132.314 Y129.156 E5.58091
G1 X130.910 Y130.096 E5.63109
G1 X129.391 Y130.675 E5.67934
G1 X127.744 Y130.909 E5.72876
G1 X82.501 Y130.909 E7.07206
G1 X81.336 Y130.780 E7.10686
G1 X80.285 Y130.496 E7.13920
G1 X79.253 Y130.042 E7.17267
G1 X78.298 Y129.435 E7.20626
G1 X77.092 Y128.297 E7.25550
G1 X76.166 Y126.916 E7.30489
G1 X75.573 Y125.360 E7.35431
G1 X75.343 Y123.718 E7.40354
G1 X75.341 Y103.921 E7.99133
G1 X75.531 Y70.743 E8.97645
G1 X75.648 Y69.624 E9.00987
G1 X75.939 Y68.521 E9.04373
G1 X76.388 Y67.492 E9.07707
G1 X77.014 Y66.506 E9.11174
G1 X78.061 Y65.389 E9.15722
G1 X78.320 Y65.632 F6000.000
G1 F1800
G1 X79.611 Y64.743 E9.20375
G1 X81.033 Y64.174 E9.24925
G1 X82.519 Y63.928 E9.29396
G1 X127.745 Y63.916 E10.63676
G1 X129.033 Y64.040 E10.67520
G1 X130.276 Y64.397 E10.71361
G1 X131.456 Y64.990 E10.75280
G1 X132.489 Y65.779 E10.79140
G1 X133.372 Y66.762 E10.83064
G1 X134.041 Y67.863 E10.86887
G1 X134.499 Y69.073 E10.90730
G1 X134.730 Y70.366 E10.94630
G1 X134.755 Y90.468 E11.54316
G1 X134.564 Y123.749 E12.53132
G1 X134.444 Y124.836 E12.56379
G1 X134.170 Y125.851 E12.59501
G1 X133.722 Y126.864 E12.62789
G1 X133.141 Y127.766 E12.65974
G1 X132.074 Y128.892 E12.70579
G1 X130.737 Y129.783 E12.75351
G1 X129.295 Y130.331 E12.79932
G1 X127.730 Y130.552 E12.84625
G1 X82.518 Y130.552 E14.18864
G1 X81.403 Y130.429 E14.22195
G1 X80.400 Y130.158 E14.25279
G1 X79.415 Y129.724 E14.28475
G1 X78.502 Y129.142 E14.31692
G1 X77.360 Y128.061 E14.36359
G1 X76.479 Y126.745 E14.41062
G1 X75.918 Y125.268 E14.45753
G1 X75.699 Y123.701 E14.50452
G1 X75.698 Y103.928 E15.09159
G1 X75.888 Y70.756 E16.07651
G1 X75.999 Y69.691 E16.10833
G1 X76.277 Y68.636 E16.14073
G1 X76.727 Y67.614 E16.17386
G1 X77.310 Y66.706 E16.20592
G1 X78.279 Y65.676 E16.24789
G1 X78.538 Y65.920 F6000.000
G1 F1800
G1 X78.581 Y65.875 E16.24974
G1 X79.785 Y65.055 E16.29302
G1 X81.141 Y64.514 E16.33636
G1 X82.553 Y64.283 E16.37884
G1 X127.744 Y64.273 E17.72062
G1 X128.969 Y64.391 E17.75714
G1 X130.150 Y64.731 E17.79362
G1 X131.272 Y65.296 E17.83094
G1 X132.253 Y66.047 E17.86762
G1 X133.092 Y66.985 E17.90498
G1 X133.725 Y68.031 E17.94130
G1 X134.165 Y69.202 E17.97844
G1 X134.376 Y70.419 E18.01511
G1 X134.398 Y90.468 E18.61037
G1 X134.207 Y123.732 E19.59804
G1 X134.092 Y124.774 E19.62917
G1 X133.832 Y125.735 E19.65874
G1 X133.404 Y126.701 E19.69010
G1 X132.848 Y127.561 E19.72053
G1 X131.839 Y128.623 E19.76400
G1 X130.565 Y129.470 E19.80943
G1 X129.198 Y129.987 E19.85282
G1 X127.710 Y130.196 E19.89744
G1 X82.535 Y130.195 E21.23876
G1 X81.464 Y130.077 E21.27073
G1 X80.511 Y129.818 E21.30007
G1 X79.573 Y129.404 E21.33051
G1 X78.701 Y128.845 E21.36125
G1 X77.624 Y127.821 E21.40536
G1 X76.793 Y126.574 E21.44986
G1 X76.263 Y125.176 E21.49426
G1 X76.056 Y123.689 E21.53884
G1 X76.056 Y103.928 E22.12555
G1 X76.245 Y70.781 E23.10977
G1 X76.350 Y69.758 E23.14031
G1 X76.614 Y68.753 E23.17115
G1 X77.044 Y67.778 E23.20280
G1 X77.603 Y66.911 E23.23342
G1 X78.497 Y65.964 E23.27208
G1 E21.27208 F2400.00000
G92 E0
G1 X81.382 Y64.821 F6000.000
G1 E2.00000 F2400.00000
G1 F1800
G1 X82.760 Y64.630 E2.04133
G1 X127.871 Y64.630 E3.38072
G1 X129.030 Y64.768 E3.41536
G1 X130.147 Y65.115 E3.45011
G1 X131.184 Y65.665 E3.48497
G1 X132.102 Y66.397 E3.51983
G1 X132.870 Y67.287 E3.55473
G1 X133.457 Y68.300 E3.58949
G1 X133.852 Y69.421 E3.62479
G1 X134.026 Y70.569 E3.65925
G1 X134.017 Y90.993 E4.26569
G1 X133.901 Y91.771 E4.28902
G1 X133.685 Y92.540 E4.31274
G1 X133.365 Y93.293 E4.33705
G1 X132.963 Y93.980 E4.36066
G1 X132.481 Y94.607 E4.38416
G1 X131.909 Y95.184 E4.40828
G1 X131.279 Y95.674 E4.43196
G1 X130.586 Y96.087 E4.45592
G1 X129.263 Y96.579 E4.49785
G1 X127.880 Y96.771 E4.53930
G1 X82.736 Y96.768 E5.87967
G1 X81.902 Y96.689 E5.90455
G1 X81.083 Y96.498 E5.92953
G1 X80.302 Y96.203 E5.95432
G1 X79.558 Y95.803 E5.97940
G1 X78.886 Y95.316 E6.00402
G1 X78.275 Y94.737 E6.02903
G1 X77.751 Y94.088 E6.05379
G1 X77.312 Y93.372 E6.07873
G1 X76.802 Y92.035 E6.12122
G1 X76.599 Y90.591 E6.16451
G1 X76.617 Y70.482 E6.76159
G1 X76.728 Y69.684 E6.78549
G1 X76.937 Y68.914 E6.80919
G1 X77.251 Y68.156 E6.83355
G1 X77.653 Y67.457 E6.85749
G1 X78.146 Y66.809 E6.88167
G1 X78.711 Y66.235 E6.90559
G1 X79.355 Y65.732 E6.92985
G1 X80.060 Y65.311 E6.95423
G1 X81.325 Y64.842 E6.99429
G1 X81.450 Y65.172 F6000.000
G1 F1800
G1 X82.773 Y64.987 E7.03394
G1 X127.860 Y64.987 E8.37265
G1 X128.970 Y65.120 E8.40584
G1 X130.024 Y65.451 E8.43862
G1 X131.001 Y65.972 E8.47151
G1 X131.866 Y66.665 E8.50441
G1 X132.588 Y67.507 E8.53734
G1 X133.140 Y68.463 E8.57012
G1 X133.509 Y69.523 E8.60344
G1 X133.671 Y70.608 E8.63603
G1 X133.662 Y90.954 E9.24011
G1 X133.549 Y91.706 E9.26271
G1 X133.345 Y92.431 E9.28508
G1 X133.041 Y93.142 E9.30803
G1 X132.661 Y93.789 E9.33030
G1 X132.206 Y94.380 E9.35246
G1 X131.664 Y94.924 E9.37524
G1 X131.069 Y95.384 E9.39758
G1 X130.418 Y95.772 E9.42010
G1 X129.194 Y96.229 E9.45888
G1 X127.868 Y96.414 E9.49864
G1 X82.761 Y96.412 E10.83791
G1 X81.971 Y96.338 E10.86148
G1 X81.197 Y96.160 E10.88506
G1 X80.460 Y95.883 E10.90844
G1 X79.757 Y95.506 E10.93211
G1 X79.123 Y95.049 E10.95534
G1 X78.545 Y94.503 E10.97892
G1 X78.037 Y93.873 E11.00296
G1 X77.625 Y93.201 E11.02637
G1 X77.143 Y91.928 E11.06678
G1 X76.956 Y90.580 E11.10719
G1 X76.973 Y70.518 E11.70284
G1 X77.075 Y69.767 E11.72536
G1 X77.278 Y69.019 E11.74837
G1 X77.576 Y68.304 E11.77135
G1 X77.956 Y67.646 E11.79392
G1 X78.423 Y67.035 E11.81674
G1 X78.957 Y66.495 E11.83931
G1 X79.566 Y66.021 E11.86222
G1 X80.229 Y65.626 E11.88513
G1 X81.394 Y65.193 E11.92204
G1 X81.556 Y65.514 F6000.000
G1 F1800
G1 X82.785 Y65.344 E11.95888
G1 X127.850 Y65.345 E13.29692
G1 X128.880 Y65.466 E13.32771
G1 X129.901 Y65.786 E13.35948
G1 X130.818 Y66.278 E13.39038
G1 X131.628 Y66.932 E13.42130
G1 X132.305 Y67.725 E13.45226
G1 X132.821 Y68.626 E13.48308
G1 X133.166 Y69.623 E13.51441
G1 X133.316 Y70.647 E13.54513
G1 X133.307 Y90.914 E14.14690
G1 X133.203 Y91.621 E14.16811
G1 X133.011 Y92.303 E14.18914
G1 X132.727 Y92.972 E14.21073
G1 X132.371 Y93.580 E14.23165
G1 X131.944 Y94.137 E14.25248
G1 X131.436 Y94.649 E14.27391
G1 X130.877 Y95.083 E14.29491
G1 X130.249 Y95.457 E14.31661
G1 X129.088 Y95.887 E14.35336
G1 X127.856 Y96.057 E14.39031
G1 X82.785 Y96.056 E15.72850
G1 X82.038 Y95.987 E15.75079
G1 X81.310 Y95.821 E15.77295
G1 X80.617 Y95.562 E15.79493
G1 X79.956 Y95.210 E15.81717
G1 X79.341 Y94.766 E15.83967
G1 X78.800 Y94.253 E15.86183
G1 X78.323 Y93.659 E15.88445
G1 X77.939 Y93.029 E15.90635
G1 X77.494 Y91.858 E15.94353
G1 X77.314 Y90.567 E15.98224
G1 X77.328 Y70.554 E16.57646
G1 X77.423 Y69.848 E16.59760
G1 X77.613 Y69.145 E16.61924
G1 X77.891 Y68.472 E16.64085
G1 X78.248 Y67.853 E16.66207
G1 X78.685 Y67.278 E16.68351
G1 X79.202 Y66.754 E16.70537
G1 X79.775 Y66.310 E16.72690
G1 X80.397 Y65.942 E16.74834
G1 X81.499 Y65.535 E16.78324
G1 X81.660 Y65.856 F6000.000
G1 F1800
G1 X82.797 Y65.702 E16.81730
G1 X127.839 Y65.702 E18.15467
G1 X128.820 Y65.819 E18.18401
G1 X129.776 Y66.121 E18.21378
G1 X130.633 Y66.584 E18.24269
G1 X131.390 Y67.199 E18.27164
G1 X132.022 Y67.943 E18.30064
G1 X132.502 Y68.787 E18.32948
G1 X132.823 Y69.722 E18.35882
G1 X132.961 Y70.684 E18.38768
G1 X132.952 Y90.876 E18.98719
G1 X132.855 Y91.537 E19.00702
G1 X132.678 Y92.175 E19.02669
G1 X132.413 Y92.803 E19.04692
G1 X132.081 Y93.372 E19.06649
G1 X131.668 Y93.910 E19.08663
G1 X131.191 Y94.389 E19.10669
G1 X130.668 Y94.794 E19.12634
G1 X130.082 Y95.141 E19.14657
G1 X128.984 Y95.545 E19.18130
G1 X127.844 Y95.700 E19.21546
G1 X82.809 Y95.699 E20.55259
G1 X82.105 Y95.636 E20.57359
G1 X81.424 Y95.482 E20.59432
G1 X80.753 Y95.232 E20.61557
G1 X80.136 Y94.901 E20.63638
G1 X79.561 Y94.484 E20.65746
G1 X79.055 Y94.003 E20.67819
G1 X78.609 Y93.445 E20.69940
G1 X78.253 Y92.858 E20.71977
G1 X77.835 Y91.751 E20.75491
G1 X77.671 Y90.555 E20.79074
G1 X77.684 Y70.590 E21.38355
G1 X77.775 Y69.908 E21.40399
G1 X77.954 Y69.250 E21.42423
G1 X78.216 Y68.620 E21.44447
G1 X78.551 Y68.041 E21.46432
G1 X78.961 Y67.504 E21.48440
G1 X79.447 Y67.014 E21.50488
G1 X79.985 Y66.599 E21.52504
G1 X80.564 Y66.258 E21.54500
G1 X81.604 Y65.876 E21.57789
G1 X81.728 Y66.207 F6000.000
G1 F1800
G1 X82.809 Y66.059 E21.61029
G1 X127.829 Y66.059 E22.94700
G1 X128.730 Y66.164 E22.97393
G1 X129.623 Y66.444 E23.00171
G1 X130.422 Y66.873 E23.02864
G1 X131.130 Y67.443 E23.05563
G1 X131.721 Y68.136 E23.08266
G1 X132.170 Y68.920 E23.10949
G1 X132.480 Y69.822 E23.13780
G1 X132.606 Y70.721 E23.16477
G1 X132.597 Y90.838 E23.76205
G1 X132.508 Y91.452 E23.78048
G1 X132.337 Y92.068 E23.79946
G1 X132.089 Y92.652 E23.81832
G1 X131.779 Y93.182 E23.83652
G1 X131.392 Y93.682 E23.85531
G1 X130.947 Y94.128 E23.87401
G1 X130.459 Y94.504 E23.89232
G1 X129.914 Y94.825 E23.91109
G1 X128.916 Y95.194 E23.94269
G1 X127.831 Y95.343 E23.97518
G1 X82.832 Y95.343 E25.31126
G1 X82.171 Y95.285 E25.33098
G1 X81.536 Y95.143 E25.35028
G1 X80.910 Y94.911 E25.37011
G1 X80.334 Y94.604 E25.38949
G1 X79.797 Y94.216 E25.40915
G1 X79.325 Y93.769 E25.42845
G1 X78.908 Y93.250 E25.44824
G1 X78.567 Y92.687 E25.46776
G1 X78.176 Y91.645 E25.50081
G1 X78.028 Y90.544 E25.53381
G1 X78.039 Y70.625 E26.12523
G1 X78.123 Y69.989 E26.14428
G1 X78.289 Y69.375 E26.16314
G1 X78.532 Y68.788 E26.18202
G1 X78.842 Y68.248 E26.20051
G1 X79.224 Y67.746 E26.21922
G1 X79.676 Y67.289 E26.23831
G1 X80.176 Y66.901 E26.25711
G1 X80.731 Y66.574 E26.27625
G1 X81.671 Y66.228 E26.30600
G1 X81.832 Y66.549 F6000.000
G1 F1800
G1 X82.821 Y66.416 E26.33563
G1 X127.818 Y66.416 E27.67167
G1 X128.671 Y66.517 E27.69715
G1 X129.498 Y66.779 E27.72293
G1 X130.237 Y67.179 E27.74787
G1 X130.891 Y67.710 E27.77289
G1 X131.437 Y68.354 E27.79795
G1 X131.851 Y69.081 E27.82280
G1 X132.136 Y69.920 E27.84909
G1 X132.250 Y70.757 E27.87420
G1 X132.241 Y90.800 E28.46930
G1 X132.161 Y91.369 E28.48634
G1 X132.003 Y91.940 E28.50394
G1 X131.774 Y92.483 E28.52144
G1 X131.489 Y92.973 E28.53829
G1 X131.131 Y93.439 E28.55572
G1 X130.719 Y93.852 E28.57303
G1 X130.250 Y94.214 E28.59065
G1 X129.748 Y94.509 E28.60793
G1 X128.811 Y94.852 E28.63753
G1 X127.820 Y94.986 E28.66725
G1 X82.840 Y94.986 E30.00274
G1 X82.214 Y94.930 E30.02140
G1 X81.627 Y94.798 E30.03927
G1 X81.047 Y94.581 E30.05766
G1 X80.514 Y94.295 E30.07562
G1 X80.017 Y93.935 E30.09385
G1 X79.581 Y93.519 E30.11173
G1 X79.194 Y93.036 E30.13010
G1 X78.881 Y92.517 E30.14810
G1 X78.527 Y91.577 E30.17793
G1 X78.385 Y90.532 E30.20925
G1 X78.395 Y70.659 E30.79929
G1 X78.472 Y70.069 E30.81696
G1 X78.623 Y69.500 E30.83444
G1 X78.847 Y68.956 E30.85192
G1 X79.146 Y68.436 E30.86971
G1 X79.500 Y67.973 E30.88703
G1 X79.920 Y67.549 E30.90475
G1 X80.385 Y67.191 E30.92216
G1 X80.898 Y66.890 E30.93982
G1 X81.775 Y66.570 E30.96756
G1 X81.935 Y66.891 F6000.000
G1 F1800
G1 X82.832 Y66.773 E30.99444
G1 X127.808 Y66.773 E32.32984
G1 X128.580 Y66.863 E32.35292
G1 X129.345 Y67.102 E32.37671
G1 X130.026 Y67.467 E32.39964
G1 X130.653 Y67.976 E32.42363
G1 X131.153 Y68.570 E32.44668
G1 X131.532 Y69.241 E32.46955
G1 X131.792 Y70.016 E32.49383
G1 X131.895 Y70.792 E32.51707
G1 X131.886 Y90.763 E33.11004
G1 X131.813 Y91.286 E33.12571
G1 X131.669 Y91.813 E33.14193
G1 X131.460 Y92.313 E33.15804
G1 X131.186 Y92.784 E33.17419
G1 X130.856 Y93.211 E33.19024
G1 X130.476 Y93.591 E33.20619
G1 X130.042 Y93.924 E33.22243
G1 X129.582 Y94.192 E33.23824
G1 X128.708 Y94.509 E33.26583
G1 X127.808 Y94.629 E33.29279
G1 X82.848 Y94.629 E34.62772
G1 X82.280 Y94.579 E34.64463
G1 X81.740 Y94.459 E34.66108
G1 X81.204 Y94.260 E34.67805
G1 X80.713 Y93.998 E34.69457
G1 X80.253 Y93.667 E34.71139
G1 X79.851 Y93.286 E34.72784
G1 X79.494 Y92.841 E34.74477
G1 X79.196 Y92.347 E34.76191
G1 X78.869 Y91.471 E34.78966
G1 X78.742 Y90.520 E34.81815
G1 X78.750 Y70.693 E35.40685
G1 X78.820 Y70.149 E35.42314
G1 X78.958 Y69.624 E35.43925
G1 X79.163 Y69.122 E35.45535
G1 X79.438 Y68.643 E35.47175
G1 X79.762 Y68.215 E35.48769
G1 X80.149 Y67.824 E35.50402
G1 X80.576 Y67.493 E35.52005
G1 X81.064 Y67.206 E35.53686
G1 X81.878 Y66.912 E35.56257
G1 X82.001 Y67.243 F6000.000
G1 F1800
G1 X82.844 Y67.130 E35.58782
G1 X127.798 Y67.130 E36.92254
G1 X128.521 Y67.215 E36.94418
G1 X129.220 Y67.437 E36.96596
G1 X129.840 Y67.773 E36.98689
G1 X130.413 Y68.241 E37.00887
G1 X130.868 Y68.786 E37.02993
G1 X131.212 Y69.400 E37.05082
G1 X131.447 Y70.112 E37.07308
G1 X131.539 Y70.826 E37.09447
G1 X131.531 Y90.727 E37.68537
G1 X131.466 Y91.204 E37.69965
G1 X131.335 Y91.687 E37.71451
G1 X131.145 Y92.145 E37.72923
G1 X130.895 Y92.576 E37.74400
G1 X130.594 Y92.968 E37.75869
G1 X130.248 Y93.316 E37.77326
G1 X129.852 Y93.622 E37.78812
G1 X129.416 Y93.876 E37.80311
G1 X128.641 Y94.158 E37.82758
G1 X127.796 Y94.272 E37.85290
G1 X82.855 Y94.272 E39.18725
G1 X82.345 Y94.228 E39.20245
G1 X81.852 Y94.119 E39.21745
G1 X81.340 Y93.929 E39.23367
G1 X80.893 Y93.689 E39.24873
G1 X80.473 Y93.385 E39.26412
G1 X80.106 Y93.036 E39.27915
G1 X79.781 Y92.628 E39.29465
G1 X79.511 Y92.178 E39.31023
G1 X79.211 Y91.367 E39.33591
G1 X79.099 Y90.509 E39.36160
G1 X79.106 Y70.726 E39.94898
G1 X79.168 Y70.227 E39.96391
G1 X79.294 Y69.747 E39.97864
G1 X79.480 Y69.288 E39.99335
G1 X79.729 Y68.849 E40.00834
G1 X80.039 Y68.441 E40.02356
G1 X80.394 Y68.084 E40.03848
G1 X80.784 Y67.783 E40.05313
G1 X81.230 Y67.523 E40.06845
G1 X81.945 Y67.263 E40.09104
G1 X82.103 Y67.585 F6000.000
G1 F1800
G1 X82.856 Y67.487 E40.11356
G1 X127.788 Y67.487 E41.44765
G1 X128.431 Y67.561 E41.46688
G1 X129.067 Y67.760 E41.48667
G1 X129.629 Y68.061 E41.50560
G1 X130.151 Y68.484 E41.52553
G1 X130.583 Y69.001 E41.54554
G1 X130.891 Y69.557 E41.56442
G1 X131.102 Y70.205 E41.58465
G1 X131.183 Y70.859 E41.60420
G1 X131.175 Y90.692 E42.19309
G1 X131.118 Y91.124 E42.20601
G1 X131.001 Y91.561 E42.21946
G1 X130.820 Y91.997 E42.23346
G1 X130.593 Y92.385 E42.24682
G1 X130.319 Y92.740 E42.26013
G1 X130.004 Y93.055 E42.27334
G1 X129.644 Y93.331 E42.28682
G1 X129.251 Y93.559 E42.30031
G1 X128.539 Y93.816 E42.32278
G1 X127.785 Y93.915 E42.34537
G1 X82.863 Y93.915 E43.67914
G1 X82.388 Y93.873 E43.69329
G1 X81.942 Y93.774 E43.70686
G1 X81.477 Y93.599 E43.72162
G1 X81.074 Y93.381 E43.73523
G1 X80.694 Y93.104 E43.74920
G1 X80.363 Y92.787 E43.76281
G1 X80.068 Y92.416 E43.77688
G1 X79.826 Y92.009 E43.79093
G1 X79.562 Y91.300 E43.81340
G1 X79.456 Y90.497 E43.83744
G1 X79.462 Y70.758 E44.42351
G1 X79.517 Y70.305 E44.43709
G1 X79.629 Y69.870 E44.45041
G1 X79.806 Y69.433 E44.46440
G1 X80.033 Y69.037 E44.47795
G1 X80.316 Y68.667 E44.49177
G1 X80.638 Y68.345 E44.50529
G1 X80.992 Y68.073 E44.51856
G1 X81.395 Y67.840 E44.53237
G1 X82.047 Y67.606 E44.55295
G1 X82.204 Y67.928 F6000.000
G1 F1800
G1 X82.867 Y67.844 E44.57278
G1 X127.777 Y67.844 E45.90623
G1 X128.372 Y67.914 E45.92402
G1 X128.942 Y68.095 E45.94178
G1 X129.444 Y68.367 E45.95871
G1 X129.911 Y68.749 E45.97662
G1 X130.296 Y69.215 E45.99459
G1 X130.569 Y69.713 E46.01145
