; generated by PrusaSlicer 2.1.0+win64 on 2019-11-23 at 15:39:10 UTC

; 

; external perimeters extrusion width = 0.45mm
; perimeters extrusion width = 0.45mm
; infill extrusion width = 0.45mm
; solid infill extrusion width = 0.45mm
; top infill extrusion width = 0.40mm
; first layer extrusion width = 0.40mm

M107
M190 S103 ; set bed temperature and wait for it to be reached
M104 S240 ; set temperature
G28 ; home all axes
G1 Z5 F5000 ; lift nozzle
M109 S240 ; set temperature and wait for it to be reached
G21 ; set units to millimeters
G90 ; use absolute coordinates
M82 ; use absolute distances for extrusion
G92 E0
; Filament gcode
G1 E-2.00000 F2400.00000
G92 E0
G1 Z0.200 F6000.000
G1 X76.577 Y54.997
G1 E2.00000 F2400.00000
G1 F1800
G1 X77.893 Y54.066 E2.04786
G1 X79.406 Y53.433 E2.09657
G1 X81.033 Y53.150 E2.14558
G1 X126.306 Y53.136 E3.48979
G1 X127.659 Y53.266 E3.53015
G1 X128.964 Y53.640 E3.57047
G1 X130.200 Y54.261 E3.61153
G1 X131.285 Y55.088 E3.65205
G1 X132.193 Y56.091 E3.69220
G1 X132.916 Y57.271 E3.73330
G1 X133.400 Y58.541 E3.77366
G1 X133.645 Y59.895 E3.81451
G1 X133.673 Y80.040 E4.41265
G1 X133.543 Y116.022 E5.48099
G1 X133.425 Y117.136 E5.51427
G1 X133.161 Y118.156 E5.54555
G1 X132.737 Y119.164 E5.57804
G1 X132.179 Y120.082 E5.60993
G1 X131.052 Y121.337 E5.66000
G1 X130.373 Y121.870 E5.68563
G1 X129.617 Y122.330 E5.71191
G1 X128.060 Y122.943 E5.76158
G1 X126.396 Y123.188 E5.81153
G1 X81.135 Y123.188 E7.15537
G1 X79.988 Y123.065 E7.18963
G1 X78.969 Y122.797 E7.22091
G1 X77.989 Y122.382 E7.25251
G1 X77.051 Y121.811 E7.28510
G1 X75.810 Y120.689 E7.33479
G1 X74.839 Y119.292 E7.38530
G1 X74.478 Y118.513 E7.41079
G1 X74.209 Y117.692 E7.43645
G1 X73.965 Y116.016 E7.48674
G1 X74.091 Y60.345 E9.13969
G1 X74.202 Y59.242 E9.17258
G1 X74.474 Y58.172 E9.20537
G1 X74.907 Y57.149 E9.23836
G1 X75.477 Y56.216 E9.27081
G1 X76.537 Y55.042 E9.31779
G1 X76.801 Y55.281 F6000.000
G1 F1800
G1 X78.074 Y54.373 E9.36421
G1 X79.515 Y53.774 E9.41054
G1 X81.068 Y53.505 E9.45735
G1 X126.305 Y53.493 E10.80050
G1 X127.594 Y53.617 E10.83894
G1 X128.837 Y53.974 E10.87734
G1 X130.016 Y54.567 E10.91653
G1 X131.050 Y55.356 E10.95513
G1 X131.933 Y56.340 E10.99437
G1 X132.601 Y57.440 E11.03260
G1 X133.060 Y58.650 E11.07103
G1 X133.291 Y59.949 E11.11021
G1 X133.315 Y80.040 E11.70672
G1 X133.186 Y116.005 E12.77458
G1 X133.073 Y117.075 E12.80654
G1 X132.820 Y118.048 E12.83638
G1 X132.413 Y119.012 E12.86746
G1 X131.880 Y119.886 E12.89787
G1 X130.808 Y121.075 E12.94539
G1 X130.166 Y121.579 E12.96963
G1 X129.436 Y122.022 E12.99496
G1 X127.962 Y122.599 E13.04197
G1 X126.375 Y122.831 E13.08959
G1 X81.152 Y122.832 E14.43232
G1 X80.054 Y122.714 E14.46511
G1 X79.083 Y122.458 E14.49492
G1 X78.147 Y122.061 E14.52511
G1 X77.252 Y121.515 E14.55623
G1 X76.075 Y120.449 E14.60338
G1 X75.152 Y119.120 E14.65142
G1 X74.552 Y117.592 E14.70016
G1 X74.322 Y115.997 E14.74801
G1 X74.448 Y60.357 E16.40005
G1 X74.554 Y59.302 E16.43152
G1 X74.815 Y58.279 E16.46289
G1 X75.228 Y57.305 E16.49429
G1 X75.775 Y56.414 E16.52534
G1 X76.761 Y55.325 E16.56895
G1 X77.025 Y55.566 F6000.000
G1 F1800
G1 X77.078 Y55.508 E16.57128
G1 X78.292 Y54.661 E16.61522
G1 X79.634 Y54.111 E16.65828
G1 X81.103 Y53.861 E16.70254
G1 X126.305 Y53.851 E18.04465
G1 X127.529 Y53.968 E18.08117
G1 X128.710 Y54.308 E18.11765
G1 X129.833 Y54.874 E18.15497
G1 X130.814 Y55.625 E18.19165
G1 X131.653 Y56.562 E18.22901
G1 X132.286 Y57.608 E18.26532
G1 X132.725 Y58.780 E18.30246
G1 X132.937 Y59.997 E18.33914
G1 X132.958 Y80.039 E18.93423
G1 X132.830 Y115.994 E20.00179
G1 X132.721 Y117.014 E20.03225
G1 X132.482 Y117.935 E20.06049
G1 X132.095 Y118.850 E20.08998
G1 X131.581 Y119.690 E20.11922
G1 X130.569 Y120.810 E20.16404
G1 X129.262 Y121.710 E20.21117
G1 X127.864 Y122.256 E20.25572
G1 X126.355 Y122.474 E20.30100
G1 X81.162 Y122.475 E21.64282
G1 X80.114 Y122.362 E21.67413
G1 X79.191 Y122.118 E21.70247
G1 X78.305 Y121.741 E21.73107
G1 X77.449 Y121.217 E21.76087
G1 X76.329 Y120.197 E21.80583
G1 X75.447 Y118.914 E21.85208
G1 X74.893 Y117.488 E21.89748
G1 X74.679 Y115.985 E21.94256
G1 X74.805 Y60.381 E23.59354
G1 X74.905 Y59.368 E23.62374
G1 X75.153 Y58.394 E23.65359
G1 X75.546 Y57.467 E23.68349
G1 X76.072 Y56.612 E23.71330
G1 X76.984 Y55.610 E23.75352
G1 E21.75352 F2400.00000
G92 E0
G1 X79.942 Y54.398 F6000.000
G1 E2.00000 F2400.00000
G1 F1800
G1 X81.321 Y54.208 E2.04133
G1 X126.432 Y54.208 E3.38072
G1 X127.590 Y54.345 E3.41536
G1 X128.708 Y54.693 E3.45011
G1 X129.745 Y55.242 E3.48497
G1 X130.663 Y55.974 E3.51983
G1 X131.431 Y56.864 E3.55473
G1 X132.018 Y57.877 E3.58949
G1 X132.413 Y58.998 E3.62479
G1 X132.587 Y60.146 E3.65925
G1 X132.578 Y80.571 E4.26569
G1 X132.462 Y81.348 E4.28902
G1 X132.246 Y82.117 E4.31274
G1 X131.926 Y82.871 E4.33705
G1 X131.524 Y83.557 E4.36066
G1 X131.042 Y84.185 E4.38416
G1 X130.470 Y84.761 E4.40828
G1 X129.840 Y85.251 E4.43196
G1 X129.147 Y85.664 E4.45592
G1 X127.823 Y86.157 E4.49785
G1 X126.441 Y86.349 E4.53930
G1 X81.297 Y86.346 E5.87967
G1 X80.463 Y86.266 E5.90455
G1 X79.643 Y86.076 E5.92953
G1 X78.862 Y85.781 E5.95432
G1 X78.119 Y85.380 E5.97940
G1 X77.447 Y84.894 E6.00402
G1 X76.836 Y84.314 E6.02903
G1 X76.312 Y83.665 E6.05379
G1 X75.873 Y82.950 E6.07873
G1 X75.363 Y81.612 E6.12122
G1 X75.160 Y80.169 E6.16451
G1 X75.178 Y60.059 E6.76159
G1 X75.288 Y59.262 E6.78549
G1 X75.498 Y58.491 E6.80919
G1 X75.812 Y57.734 E6.83355
G1 X76.214 Y57.035 E6.85749
G1 X76.707 Y56.386 E6.88167
G1 X77.272 Y55.813 E6.90559
G1 X77.916 Y55.309 E6.92985
G1 X78.621 Y54.888 E6.95423
G1 X79.886 Y54.419 E6.99429
G1 X80.011 Y54.749 F6000.000
G1 F1800
G1 X81.333 Y54.565 E7.03394
G1 X126.421 Y54.565 E8.37265
G1 X127.531 Y54.698 E8.40584
G1 X128.585 Y55.028 E8.43862
G1 X129.562 Y55.549 E8.47151
G1 X130.427 Y56.242 E8.50441
G1 X131.149 Y57.084 E8.53734
G1 X131.700 Y58.040 E8.57012
G1 X132.070 Y59.100 E8.60344
G1 X132.232 Y60.185 E8.63603
G1 X132.223 Y80.531 E9.24011
G1 X132.110 Y81.284 E9.26271
G1 X131.905 Y82.009 E9.28508
G1 X131.602 Y82.720 E9.30803
G1 X131.222 Y83.366 E9.33030
G1 X130.766 Y83.957 E9.35246
G1 X130.225 Y84.501 E9.37524
G1 X129.630 Y84.962 E9.39758
G1 X128.978 Y85.349 E9.42010
G1 X127.754 Y85.806 E9.45888
G1 X126.428 Y85.991 E9.49864
G1 X81.322 Y85.989 E10.83791
G1 X80.531 Y85.915 E10.86148
G1 X79.758 Y85.737 E10.88506
G1 X79.020 Y85.460 E10.90844
G1 X78.318 Y85.084 E10.93211
G1 X77.683 Y84.626 E10.95534
G1 X77.106 Y84.081 E10.97892
G1 X76.597 Y83.450 E11.00296
G1 X76.186 Y82.778 E11.02637
G1 X75.704 Y81.505 E11.06678
G1 X75.517 Y80.157 E11.10719
G1 X75.533 Y60.095 E11.70284
G1 X75.636 Y59.344 E11.72536
G1 X75.839 Y58.596 E11.74837
G1 X76.137 Y57.882 E11.77135
G1 X76.517 Y57.223 E11.79392
G1 X76.983 Y56.612 E11.81674
G1 X77.518 Y56.072 E11.83931
G1 X78.126 Y55.598 E11.86222
G1 X78.790 Y55.204 E11.88513
G1 X79.955 Y54.770 E11.92204
G1 X80.116 Y55.091 F6000.000
G1 F1800
G1 X81.346 Y54.922 E11.95888
G1 X126.411 Y54.922 E13.29692
G1 X127.440 Y55.043 E13.32771
G1 X128.461 Y55.364 E13.35948
G1 X129.378 Y55.856 E13.39038
G1 X130.189 Y56.509 E13.42130
G1 X130.866 Y57.303 E13.45226
G1 X131.382 Y58.203 E13.48308
G1 X131.727 Y59.200 E13.51441
G1 X131.877 Y60.224 E13.54513
G1 X131.868 Y80.492 E14.14690
G1 X131.763 Y81.198 E14.16811
G1 X131.572 Y81.880 E14.18914
G1 X131.288 Y82.550 E14.21073
G1 X130.932 Y83.158 E14.23165
G1 X130.505 Y83.714 E14.25248
G1 X129.996 Y84.226 E14.27391
G1 X129.438 Y84.661 E14.29491
G1 X128.810 Y85.034 E14.31661
G1 X127.649 Y85.464 E14.35336
G1 X126.416 Y85.634 E14.39031
G1 X81.346 Y85.633 E15.72850
G1 X80.599 Y85.564 E15.75079
G1 X79.871 Y85.398 E15.77295
G1 X79.178 Y85.139 E15.79493
G1 X78.517 Y84.787 E15.81717
G1 X77.902 Y84.343 E15.83967
G1 X77.360 Y83.830 E15.86183
G1 X76.883 Y83.236 E15.88445
G1 X76.500 Y82.606 E15.90635
G1 X76.054 Y81.435 E15.94353
G1 X75.874 Y80.145 E15.98224
G1 X75.889 Y60.131 E16.57646
G1 X75.984 Y59.425 E16.59760
G1 X76.174 Y58.722 E16.61924
G1 X76.452 Y58.049 E16.64085
G1 X76.808 Y57.430 E16.66207
G1 X77.245 Y56.855 E16.68351
G1 X77.763 Y56.332 E16.70537
G1 X78.336 Y55.887 E16.72690
G1 X78.957 Y55.519 E16.74834
G1 X80.060 Y55.112 E16.78324
G1 X80.221 Y55.433 F6000.000
G1 F1800
G1 X81.357 Y55.279 E16.81730
G1 X126.400 Y55.279 E18.15467
G1 X127.381 Y55.396 E18.18401
G1 X128.337 Y55.699 E18.21378
G1 X129.194 Y56.162 E18.24269
G1 X129.951 Y56.776 E18.27164
G1 X130.583 Y57.521 E18.30064
G1 X131.063 Y58.365 E18.32948
G1 X131.384 Y59.300 E18.35882
G1 X131.522 Y60.262 E18.38768
G1 X131.513 Y80.453 E18.98719
G1 X131.416 Y81.114 E19.00702
G1 X131.239 Y81.752 E19.02669
G1 X130.973 Y82.380 E19.04692
G1 X130.642 Y82.949 E19.06649
G1 X130.229 Y83.487 E19.08663
G1 X129.752 Y83.966 E19.10669
G1 X129.228 Y84.371 E19.12634
G1 X128.642 Y84.718 E19.14657
G1 X127.544 Y85.122 E19.18130
G1 X126.404 Y85.277 E19.21546
G1 X81.370 Y85.277 E20.55259
G1 X80.666 Y85.213 E20.57359
G1 X79.985 Y85.059 E20.59432
G1 X79.314 Y84.809 E20.61557
G1 X78.696 Y84.478 E20.63638
G1 X78.122 Y84.061 E20.65746
G1 X77.616 Y83.580 E20.67819
G1 X77.170 Y83.022 E20.69940
G1 X76.814 Y82.435 E20.71977
G1 X76.396 Y81.329 E20.75491
G1 X76.231 Y80.133 E20.79074
G1 X76.244 Y60.167 E21.38355
G1 X76.336 Y59.485 E21.40399
G1 X76.515 Y58.827 E21.42423
G1 X76.777 Y58.198 E21.44447
G1 X77.112 Y57.619 E21.46432
G1 X77.522 Y57.081 E21.48440
G1 X78.008 Y56.592 E21.50488
G1 X78.545 Y56.177 E21.52504
G1 X79.124 Y55.835 E21.54500
G1 X80.164 Y55.454 E21.57789
G1 X80.289 Y55.784 F6000.000
G1 F1800
G1 X81.370 Y55.636 E21.61029
G1 X126.390 Y55.636 E22.94700
G1 X127.291 Y55.742 E22.97393
G1 X128.184 Y56.022 E23.00171
G1 X128.983 Y56.450 E23.02864
G1 X129.691 Y57.021 E23.05563
G1 X130.281 Y57.713 E23.08266
G1 X130.731 Y58.497 E23.10949
G1 X131.040 Y59.399 E23.13780
G1 X131.166 Y60.299 E23.16477
G1 X131.157 Y80.415 E23.76205
G1 X131.069 Y81.029 E23.78048
G1 X130.898 Y81.645 E23.79946
G1 X130.649 Y82.230 E23.81832
G1 X130.340 Y82.759 E23.83652
G1 X129.953 Y83.260 E23.85531
G1 X129.508 Y83.705 E23.87401
G1 X129.019 Y84.082 E23.89232
G1 X128.475 Y84.403 E23.91109
G1 X127.476 Y84.771 E23.94269
G1 X126.392 Y84.920 E23.97518
G1 X81.393 Y84.920 E25.31126
G1 X80.732 Y84.862 E25.33098
G1 X80.097 Y84.720 E25.35028
G1 X79.471 Y84.488 E25.37011
G1 X78.895 Y84.181 E25.38949
G1 X78.358 Y83.794 E25.40915
G1 X77.886 Y83.347 E25.42845
G1 X77.469 Y82.827 E25.44824
G1 X77.128 Y82.265 E25.46776
G1 X76.737 Y81.222 E25.50081
G1 X76.588 Y80.121 E25.53381
G1 X76.600 Y60.202 E26.12523
G1 X76.684 Y59.566 E26.14428
G1 X76.849 Y58.953 E26.16314
G1 X77.093 Y58.365 E26.18202
G1 X77.403 Y57.825 E26.20051
G1 X77.784 Y57.324 E26.21922
G1 X78.236 Y56.866 E26.23831
G1 X78.737 Y56.478 E26.25711
G1 X79.292 Y56.151 E26.27625
G1 X80.232 Y55.805 E26.30600
G1 X80.392 Y56.126 F6000.000
G1 F1800
G1 X81.381 Y55.993 E26.33563
G1 X126.379 Y55.993 E27.67167
G1 X127.231 Y56.094 E27.69715
G1 X128.059 Y56.357 E27.72293
G1 X128.798 Y56.756 E27.74787
G1 X129.452 Y57.287 E27.77289
G1 X129.998 Y57.931 E27.79795
G1 X130.412 Y58.658 E27.82280
G1 X130.696 Y59.497 E27.84909
G1 X130.811 Y60.335 E27.87420
G1 X130.802 Y80.378 E28.46930
G1 X130.722 Y80.946 E28.48634
G1 X130.564 Y81.517 E28.50394
G1 X130.335 Y82.060 E28.52144
G1 X130.049 Y82.551 E28.53829
G1 X129.692 Y83.016 E28.55572
G1 X129.280 Y83.429 E28.57303
G1 X128.810 Y83.792 E28.59065
G1 X128.308 Y84.086 E28.60793
G1 X127.372 Y84.429 E28.63753
G1 X126.380 Y84.563 E28.66725
G1 X81.401 Y84.563 E30.00274
G1 X80.775 Y84.508 E30.02140
G1 X80.188 Y84.375 E30.03927
G1 X79.608 Y84.158 E30.05766
G1 X79.075 Y83.872 E30.07562
G1 X78.578 Y83.512 E30.09385
G1 X78.141 Y83.097 E30.11173
G1 X77.755 Y82.613 E30.13010
G1 X77.442 Y82.094 E30.14810
G1 X77.088 Y81.154 E30.17793
G1 X76.946 Y80.109 E30.20925
G1 X76.955 Y60.237 E30.79929
G1 X77.032 Y59.646 E30.81696
G1 X77.184 Y59.077 E30.83444
G1 X77.408 Y58.533 E30.85192
G1 X77.707 Y58.014 E30.86971
G1 X78.061 Y57.550 E30.88703
G1 X78.481 Y57.127 E30.90475
G1 X78.946 Y56.768 E30.92216
G1 X79.458 Y56.467 E30.93982
G1 X80.336 Y56.147 E30.96756
G1 X80.495 Y56.469 F6000.000
G1 F1800
G1 X81.393 Y56.350 E30.99444
G1 X126.369 Y56.350 E32.32984
G1 X127.141 Y56.440 E32.35292
G1 X127.906 Y56.680 E32.37671
G1 X128.586 Y57.044 E32.39964
G1 X129.214 Y57.553 E32.42363
G1 X129.714 Y58.148 E32.44668
G1 X130.092 Y58.818 E32.46955
G1 X130.352 Y59.594 E32.49383
G1 X130.455 Y60.370 E32.51707
G1 X130.447 Y80.341 E33.11004
G1 X130.374 Y80.863 E33.12571
G1 X130.230 Y81.390 E33.14193
G1 X130.020 Y81.891 E33.15804
G1 X129.747 Y82.361 E33.17419
G1 X129.416 Y82.789 E33.19024
G1 X129.036 Y83.168 E33.20619
G1 X128.602 Y83.501 E33.22243
G1 X128.143 Y83.770 E33.23824
G1 X127.269 Y84.087 E33.26583
G1 X126.369 Y84.206 E33.29279
G1 X81.409 Y84.206 E34.62772
G1 X80.841 Y84.157 E34.64463
G1 X80.300 Y84.036 E34.66108
G1 X79.765 Y83.837 E34.67805
G1 X79.274 Y83.575 E34.69457
G1 X78.814 Y83.244 E34.71139
G1 X78.412 Y82.863 E34.72784
G1 X78.055 Y82.419 E34.74477
G1 X77.756 Y81.924 E34.76191
G1 X77.430 Y81.049 E34.78966
G1 X77.303 Y80.097 E34.81815
G1 X77.311 Y60.270 E35.40685
G1 X77.381 Y59.726 E35.42314
G1 X77.519 Y59.201 E35.43925
G1 X77.724 Y58.700 E35.45535
G1 X77.998 Y58.220 E35.47175
G1 X78.323 Y57.792 E35.48769
G1 X78.710 Y57.401 E35.50402
G1 X79.136 Y57.070 E35.52005
G1 X79.625 Y56.784 E35.53686
G1 X80.439 Y56.489 E35.56257
G1 X80.562 Y56.820 F6000.000
G1 F1800
G1 X81.405 Y56.707 E35.58782
G1 X126.358 Y56.707 E36.92254
G1 X127.082 Y56.793 E36.94418
G1 X127.781 Y57.015 E36.96596
G1 X128.401 Y57.350 E36.98689
G1 X128.974 Y57.819 E37.00887
G1 X129.429 Y58.363 E37.02993
G1 X129.772 Y58.977 E37.05082
G1 X130.008 Y59.689 E37.07308
G1 X130.100 Y60.403 E37.09447
G1 X130.091 Y80.305 E37.68537
G1 X130.026 Y80.782 E37.69965
G1 X129.896 Y81.264 E37.71451
G1 X129.705 Y81.722 E37.72923
G1 X129.456 Y82.153 E37.74400
G1 X129.155 Y82.545 E37.75869
G1 X128.809 Y82.893 E37.77326
G1 X128.412 Y83.199 E37.78812
G1 X127.976 Y83.453 E37.80311
G1 X127.202 Y83.735 E37.82758
G1 X126.357 Y83.849 E37.85290
G1 X81.416 Y83.849 E39.18725
G1 X80.906 Y83.805 E39.20245
G1 X80.413 Y83.697 E39.21745
G1 X79.901 Y83.507 E39.23367
G1 X79.453 Y83.267 E39.24873
G1 X79.034 Y82.962 E39.26412
G1 X78.667 Y82.613 E39.27915
G1 X78.341 Y82.205 E39.29465
G1 X78.071 Y81.755 E39.31023
G1 X77.772 Y80.944 E39.33591
G1 X77.660 Y80.086 E39.36160
G1 X77.667 Y60.303 E39.94898
G1 X77.729 Y59.804 E39.96391
G1 X77.855 Y59.324 E39.97864
G1 X78.041 Y58.865 E39.99335
G1 X78.290 Y58.426 E40.00834
G1 X78.600 Y58.018 E40.02356
G1 X78.954 Y57.662 E40.03848
G1 X79.345 Y57.360 E40.05313
G1 X79.791 Y57.100 E40.06845
G1 X80.506 Y56.841 E40.09104
G1 X80.664 Y57.163 F6000.000
G1 F1800
G1 X81.416 Y57.064 E40.11356
G1 X126.348 Y57.064 E41.44765
G1 X126.992 Y57.139 E41.46688
G1 X127.628 Y57.338 E41.48667
G1 X128.190 Y57.638 E41.50560
G1 X128.711 Y58.061 E41.52553
G1 X129.143 Y58.579 E41.54554
G1 X129.451 Y59.135 E41.56442
G1 X129.663 Y59.783 E41.58465
G1 X129.744 Y60.436 E41.60420
G1 X129.736 Y80.269 E42.19309
G1 X129.678 Y80.701 E42.20601
G1 X129.561 Y81.139 E42.21946
G1 X129.380 Y81.574 E42.23346
G1 X129.154 Y81.963 E42.24682
G1 X128.880 Y82.317 E42.26013
G1 X128.565 Y82.632 E42.27334
G1 X128.205 Y82.908 E42.28682
G1 X127.812 Y83.136 E42.30031
G1 X127.100 Y83.393 E42.32278
G1 X126.345 Y83.492 E42.34537
G1 X81.424 Y83.492 E43.67914
G1 X80.949 Y83.451 E43.69329
G1 X80.503 Y83.351 E43.70686
G1 X80.038 Y83.177 E43.72162
G1 X79.634 Y82.959 E43.73523
G1 X79.254 Y82.681 E43.74920
G1 X78.923 Y82.364 E43.76281
G1 X78.629 Y81.993 E43.77688
G1 X78.387 Y81.587 E43.79093
G1 X78.123 Y80.877 E43.81340
G1 X78.017 Y80.074 E43.83744
G1 X78.023 Y60.336 E44.42351
G1 X78.078 Y59.882 E44.43709
G1 X78.190 Y59.447 E44.45041
G1 X78.367 Y59.011 E44.46440
G1 X78.594 Y58.614 E44.47795
G1 X78.876 Y58.245 E44.49177
G1 X79.198 Y57.923 E44.50529
G1 X79.553 Y57.651 E44.51856
G1 X79.955 Y57.417 E44.53237
G1 X80.608 Y57.183 E44.55295
G1 X80.765 Y57.506 F6000.000
G1 F1800
G1 X81.427 Y57.421 E44.57278
G1 X126.338 Y57.421 E45.90623
G1 X126.933 Y57.491 E45.92402
G1 X127.503 Y57.672 E45.94178
G1 X128.004 Y57.944 E45.95871
G1 X128.471 Y58.326 E45.97662
G1 X128.857 Y58.792 E45.99459
G1 X129.130 Y59.290 E46.01145
